X:146
T:AIR XXIII. There's my Thumb.
O:england
B:Joseph Mitchell: "The Highland Fair" (1731)
M:C|
L:1/8
K:Cmix
(FG)(AB)  c2  F2 |(GA)(Bc) d2 f2|(FG)(AB) c2BA|(de)(fA) c2 BA |
(BA)(Bc) (de)(fA)| G3   A  d2 ef| F3   D  C3 D| F3   G  A2 c2|]


